Origami/22x22/apps/sirikali.svg

<svg width="22" height="22" version="1" xmlns="http://www.w3.org/2000/svg">
 <rect transform="matrix(0,-1,-1,0,0,0)" x="-21" y="-21" width="20" height="20" rx="1" ry="1" style="fill:#1493ca"/>
 <path d="m2 1c-0.554 0-1 0.446-1 1v0.5c0-0.554 0.446-1 1-1h18c0.554 0 1 0.446 1 1v-0.5c0-0.554-0.446-1-1-1h-18z" style="fill:#ffffff;opacity:.2"/>
 <path d="m1 20v0.5c0 0.554 0.446 1 1 1h18c0.554 0 1-0.446 1-1v-0.5c0 0.554-0.446 1-1 1h-18c-0.554 0-1-0.446-1-1z" style="opacity:.2"/>
 <path d="m11 5.5a4 4 0 0 0 -4 4v1h-0.2363281c-0.4227 0-0.7636719 0.311219-0.7636719 0.699219v5.601562c0 0.388 0.3409719 0.699219 0.7636719 0.699219h8.4726561c0.423 0 0.763672-0.311219 0.763672-0.699219v-5.601562c0-0.388-0.340672-0.699219-0.763672-0.699219h-0.236328v-1a4 4 0 0 0 -4 -4zm0 2a2 2 0 0 1 2 2v1h-4v-1a2 2 0 0 1 2 -2zm0 4a1 1 0 0 1 1 1 1 1 0 0 1 -0.5 0.865234v2.134766h-1v-2.136719a1 1 0 0 1 -0.5 -0.863281 1 1 0 0 1 1 -1z" style="opacity:.2"/>
 <path d="m11 5a4 4 0 0 0 -4 4v1h-0.2363281c-0.4227 0-0.7636719 0.311219-0.7636719 0.699219v5.601562c0 0.388 0.3409719 0.699219 0.7636719 0.699219h8.4726561c0.423 0 0.763672-0.311219 0.763672-0.699219v-5.601562c0-0.388-0.340672-0.699219-0.763672-0.699219h-0.236328v-1a4 4 0 0 0 -4 -4zm0 2a2 2 0 0 1 2 2v1h-4v-1a2 2 0 0 1 2 -2zm0 4a1 1 0 0 1 1 1 1 1 0 0 1 -0.5 0.865234v2.134766h-1v-2.136719a1 1 0 0 1 -0.5 -0.863281 1 1 0 0 1 1 -1z" style="fill:#ffffff"/>
</svg>

<svg xmlns="http://www.w3.org/2000/svg" width="22" height="22" version="1">
 <rect style="fill:#1493ca" width="20" height="20" x="-21" y="-21" rx="1" ry="1" transform="matrix(0,-1,-1,0,0,0)"/>
 <path style="opacity:0.2;fill:#ffffff" d="M 2,1 C 1.446,1 1,1.446 1,2 l 0,0.5 c 0,-0.554 0.446,-1 1,-1 l 18,0 c 0.554,0 1,0.446 1,1 L 21,2 C 21,1.446 20.554,1 20,1 L 2,1 Z"/>
 <path style="opacity:0.2" d="m 1,20 0,0.5 c 0,0.554 0.446,1 1,1 l 18,0 c 0.554,0 1,-0.446 1,-1 L 21,20 c 0,0.554 -0.446,1 -1,1 L 2,21 C 1.446,21 1,20.554 1,20 Z"/>
 <path d="m 11,5.5 a 4,4 0 0 0 -4,4 l 0,1 -0.2363281,0 C 6.3409719,10.5 6,10.811219 6,11.199219 l 0,5.601562 C 6,17.188781 6.3409719,17.5 6.7636719,17.5 l 8.4726561,0 C 15.659328,17.5 16,17.188781 16,16.800781 l 0,-5.601562 C 16,10.811219 15.659328,10.5 15.236328,10.5 L 15,10.5 l 0,-1 a 4,4 0 0 0 -4,-4 z m 0,2 a 2,2 0 0 1 2,2 l 0,1 -4,0 0,-1 a 2,2 0 0 1 2,-2 z m 0,4 a 1,1 0 0 1 1,1 1,1 0 0 1 -0.5,0.865234 l 0,2.134766 -1,0 0,-2.136719 A 1,1 0 0 1 10,12.5 a 1,1 0 0 1 1,-1 z" style="opacity:0.2"/>
 <path style="fill:#ffffff" d="M 11,5 A 4,4 0 0 0 7,9 l 0,1 -0.2363281,0 C 6.3409719,10 6,10.311219 6,10.699219 l 0,5.601562 C 6,16.688781 6.3409719,17 6.7636719,17 l 8.4726561,0 C 15.659328,17 16,16.688781 16,16.300781 l 0,-5.601562 C 16,10.311219 15.659328,10 15.236328,10 L 15,10 15,9 A 4,4 0 0 0 11,5 Z m 0,2 a 2,2 0 0 1 2,2 l 0,1 -4,0 0,-1 a 2,2 0 0 1 2,-2 z m 0,4 a 1,1 0 0 1 1,1 1,1 0 0 1 -0.5,0.865234 L 11.5,15 l -1,0 0,-2.136719 A 1,1 0 0 1 10,12 1,1 0 0 1 11,11 Z"/>
</svg>
